svg/500/outlined/alarm_on.svg

<svg xmlns="http://www.w3.org/2000/svg" width="48" height="48" viewBox="0 -960 960 960"><path d="m436.043-303.609 225.153-224.913-45.153-44.913-180 180-94-94-44.673 44.913 138.673 138.913ZM479-76.022q-75.196 0-141.772-28.478t-116.032-77.815q-49.457-49.337-78.316-115.913-28.858-66.576-28.858-142.505t28.858-142.272q28.859-66.343 78.316-116.18 49.456-49.837 116.032-78.435T479-806.218q75.196 0 141.772 28.598t116.413 78.435q49.837 49.837 78.435 116.18t28.598 142.272q0 75.929-28.598 142.505t-78.438 115.97q-49.839 49.395-116.413 77.816Q554.196-76.022 479-76.022ZM479-439ZM211.37-874.652l44.152 44.152L86.5-667.478 42.587-711.63 211.37-874.652Zm535.26 0L915.652-711.63 871.5-667.478 702.478-830.5l44.152-44.152ZM479-144.152q124.043 0 210.446-86.402Q775.848-316.957 775.848-441q0-124.043-86.402-210.446Q603.043-737.848 479-737.848q-124.043 0-210.446 86.402Q182.152-565.043 182.152-441q0 124.043 86.402 210.446Q354.957-144.152 479-144.152Z"/></svg>

<svg xmlns="http://www.w3.org/2000/svg" width="48" height="48" viewBox="0 -960 960 960"><path d="M436.04-303.61 661.2-528.52l-45.16-44.91-180 180-94-94-44.67 44.91 138.67 138.91ZM479-76.02q-75.2 0-141.77-28.48-66.58-28.48-116.03-77.82-49.46-49.33-78.32-115.91-28.86-66.57-28.86-142.5T142.88-583q28.86-66.35 78.32-116.18 49.45-49.84 116.03-78.44 66.57-28.6 141.77-28.6 75.2 0 141.77 28.6 66.58 28.6 116.41 78.44 49.84 49.83 78.44 116.18 28.6 66.34 28.6 142.27t-28.6 142.5q-28.6 66.58-78.44 115.97-49.84 49.4-116.41 77.82Q554.2-76.02 479-76.02ZM479-439ZM211.37-874.65l44.15 44.15L86.5-667.48l-43.91-44.15 168.78-163.02Zm535.26 0 169.02 163.02-44.15 44.15L702.48-830.5l44.15-44.15ZM479-144.15q124.04 0 210.45-86.4 86.4-86.41 86.4-210.45 0-124.04-86.4-210.45-86.41-86.4-210.45-86.4-124.04 0-210.45 86.4-86.4 86.41-86.4 210.45 0 124.04 86.4 210.45 86.41 86.4 210.45 86.4Z"/></svg>
